assets/images/signIn/google-logo.svg

<svg xmlns="http://www.w3.org/2000/svg" width="40" height="40" fill="none" viewBox="0 0 40 40"><rect width="39" height="39" x=".5" y=".5" fill="#fff" stroke="#DADCE0" rx="19.5"/><g clip-path="url(#clip0_9_55)"><path fill="#EA4335" d="M20 14.2763C21.3973 14.2763 22.6486 14.7579 23.6355 15.6974L26.3394 12.9934C24.6973 11.4658 22.5539 10.5263 20 10.5263C16.2973 10.5263 13.096 12.65 11.5368 15.7447L14.6868 18.1881C15.4329 15.9421 17.5289 14.2763 20 14.2763Z"/><path fill="#4285F4" d="M29.0711 20.2171C29.0711 19.5973 29.0118 18.9973 28.9211 18.421H20V21.9815H25.1079C24.8789 23.15 24.2158 24.1447 23.2211 24.8158L26.2724 27.1842C28.0526 25.5342 29.0711 23.0947 29.0711 20.2171Z"/><path fill="#FBBC05" d="M14.6829 21.8119C14.4934 21.2395 14.3829 20.6316 14.3829 20C14.3829 19.3684 14.4895 18.7605 14.6829 18.1882L11.5329 15.7448C10.8895 17.0237 10.5263 18.4684 10.5263 20C10.5263 21.5316 10.8895 22.9763 11.5368 24.2553L14.6829 21.8119Z"/><path fill="#34A853" d="M20 29.4737C22.5579 29.4737 24.7092 28.6329 26.2724 27.1802L23.2211 24.8118C22.3724 25.3842 21.279 25.7197 20 25.7197C17.529 25.7197 15.4329 24.0539 14.6829 21.8079L11.5329 24.2513C13.0961 27.35 16.2974 29.4737 20 29.4737Z"/></g></svg>

<svg xmlns="http://www.w3.org/2000/svg" width="40" height="40" fill="none" viewBox="0 0 40 40"><rect width="39" height="39" x=".5" y=".5" fill="#fff" stroke="#dadce0" rx="19.5"/><g clip-path="url(#clip0_9_55)"><path fill="#ea4335" d="M20 14.276c1.397 0 2.649.482 3.636 1.421l2.703-2.704c-1.642-1.527-3.785-2.467-6.339-2.467a9.47 9.47 0 0 0-8.463 5.219l3.15 2.443c.746-2.246 2.842-3.912 5.313-3.912"/><path fill="#4285f4" d="M29.071 20.217c0-.62-.06-1.22-.15-1.796H20v3.56h5.108a4.4 4.4 0 0 1-1.887 2.835l3.051 2.368c1.78-1.65 2.8-4.09 2.8-6.967"/><path fill="#fbbc05" d="M14.683 21.812c-.19-.573-.3-1.18-.3-1.812s.107-1.24.3-1.812l-3.15-2.443A9.44 9.44 0 0 0 10.526 20c0 1.532.364 2.976 1.01 4.255z"/><path fill="#34a853" d="M20 29.474c2.558 0 4.71-.841 6.272-2.294l-3.05-2.368c-.85.572-1.943.908-3.222.908-2.471 0-4.567-1.666-5.317-3.912l-3.15 2.443c1.563 3.099 4.764 5.223 8.467 5.223"/></g></svg>
